X:226
T:Lay Dee At Dee
S:Johnny Cradden, Edinburgh
O:Shetland
Z:Nigel Gatherer
M:4/4
L:1/8
K:D
A2 | defe d2 d2 | ABAG F2 D2 | d2 ef gf e2 | efed cB A2 |
defe d2 d2 | ABAG F2 D2 | d2 ef gfec | e2 d2 d2 :|
e2 | f2 df afdf | afdf g3 f | e2 ce Aece | edcB A2 e2 |
f2 df afdf | afdf g3 f | efgf edcB | A2 d2 d2 :|
<end>
<start>
